X:4263
T: Miss McGuiness (2)
O:england
M:4/4
L:1/8
S:Paul Carton
K:G
dGG2 dGBd|dBge dBB2|dGG2 dGBd|(3gfe) dB BAA2:|
(3fga af g3e|dbB2 defg|(3fga af g3e|dBGA BAA2|
(3fga af g 3e|dBB2 dega|bagb afge|dBGA BAA2||


